!!!COM: Bach, Johann Sebastian
!!!OTL: Sinfonia No. 8; in F major; BWV 794
!! Three-part sinfonia
!! Bach-Gesellschaft edition, p.29
!! Performance duration: 1:01; performance tempo: 90.5 quarter-notes per minute.
!! (Andras Schiff, piano, "Two-Part Inventions BWV 772a-786; Three-part
!! Inventions BWV 787-801" Decca 411 974-2)
**kern	**kern	**kern
*staff2	*staff1	*staff1
*M4/4	*M4/4	*M4/4
*MM90.5	*MM90.5	*MM90.5
*F:	*F:	*F:
=1	=1	=1
4FF	8r	1r
.	16cc	.
.	16a	.
2F	8dd	.
.	8cc	.
.	8b-M	.
.	16a	.
.	16g	.
4E	16cc	.
.	16dd	.
.	16b-	.
.	16cc	.
=2	=2	=2
8F	16a	8r
.	16b-	.
16A	[8cc	16ff
16G	.	16ee
8F	2cc]	8aa
8E	.	8gg
8D	.	8ffM
16G	.	16ee
16F	.	16dd
8G	4bn	16gg
.	.	16aa
8GG	.	16ff
.	.	16gg
=3	=3	=3
8C	8cc	16ee
.	.	16ff
16c	8b-	16dd
16A	.	16ee
8d	16a	2ff
.	16b-	.
8c	16cc	.
.	16dd	.
8B-M	2g	.
16A	.	.
16G	.	.
16c	.	4ee
16d	.	.
16B-	.	.
16c	.	.
=4	=4	=4
8A	4f	8ff
8G	.	16cc
.	.	16a
16F	8r	4dd
16E	.	.
16F	16a	.
16D	16f	.
8G	4bn	8r
8GG	.	16dd
.	.	16bn
16G	8r	4ee
16F	.	.
16G	16b	.
16E	16g	.
=5	=5	=5
8A	4cc	8r
8AA	.	16ee
.	.	16cc
16A	8r	[4ff
16G	.	.
16A	16cc	.
16F	16a	.
8Bn	[4dd	16ff]
.	.	16ee
16G	.	16ff
16E	.	16gg
8A	16dd]	8.ee
.	16bn	.
8G	[8cc	.
.	.	16ee
=6	=6	=6
8F	4cc_	16aa
.	.	16ff
16E	.	16gg
16D	.	16aa
16G	16cc]	[4dd
16A	16a	.
16F	16bn	.
16G	16dd	.
8E	16g	8dd]
.	16f	.
16A	16g	16cc
16G	16e	16bn
8F	8a	[4cc
8E	8g	.
=7	=7	=7
8D	8f	4cc]
16G	16e	.
16F	16d	.
8G	16g	4bn
.	16a	.
8GG	16f	.
.	16g	.
8C	8e	8cc
8CC	8r	16gg
.	.	16ee
8r	4r	8aa
16c	.	8gg
16A	.	.
=8	=8	=8
8d	1r	8ff
8c	.	16ee
.	.	16dd
8Bn	.	16gg
.	.	16aa
16A	.	16ff
16G	.	16gg
16c	.	16ee
16d	.	16dd
16B-	.	16ee
16c	.	16cc
16A	.	8ff
16G	.	.
16A	.	8ee
16F	.	.
=9	=9	=9
8B-	1r	8dd
8A	.	16cc#
.	.	16bn
8G	.	16ee
.	.	16ff
16F	.	16dd
16E	.	16ee
16A	.	8cc
16B-	.	.
16G	.	16aa
16A	.	16ff
8D	.	8bb-
16d	.	8aa
16Bn	.	.
=10	=10	=10
8e	2r	8gg
8d	.	16ff
.	.	16ee
8c#	.	16aa
.	.	16bb-
16Bn	.	16gg
16A	.	16aa
16d	8r	8ff#M
16cn	.	.
16B-	16dd	8dd
16A	16b-	.
16G	8ee-	[4gg
16A	.	.
16B-	8dd	.
16G	.	.
=11	=11	=11
8A	8cc	4gg]
16d	16b-	.
16c	16a	.
8d	16dd	4ff#
.	16ee-	.
8D	16cc	.
.	16dd	.
8G	16b-	[2gg
.	16a	.
16D	16b-	.
16BB-	16g	.
8E-	16cc	.
.	16dd	.
8D	16b-	.
.	16cc	.
=12	=12	=12
8C	4.a	8gg]
16BB-	.	8gg
16AA	.	.
16D	.	[4ffn
16E-	.	.
16C	8a	.
16D	.	.
8BB-	4.g	8ff]
16G	.	8ee-
16F	.	.
8B-	.	[4dd
8A	8f	.
=13	=13	=13
8G	[2en	8dd]
16F	.	8dd
16E	.	.
16A	.	8cc#
16B-	.	.
16G	.	8ee
16A	.	.
16F	8e]	16a
16E	.	16g
16F	16d	16a
16D	16c#	16f
8G	[4d	8b-
8F	.	8a
=14	=14	=14
8E	4d]	8g
16A	.	16f
16G	.	16e
8A	4c#	16a
.	.	16b-
8AA	.	16g
.	.	16a
8BB-	16r	[2f
.	16d	.
16AA	16cn	.
16FF	16A	.
8GG	16B-	.
.	16c#	.
16FF	16d	.
16DD	16A	.
=15	=15	=15
16BB-	[2G	16f]
16AA	.	16f
16BB-	.	16e
16GG	.	16g
8AA	.	8.c#
8AA	.	.
.	.	16d
4DD	8G]	4d
.	16F	.
.	16D	.
8r	[4B-	8r
8D	.	16f
.	.	16d
=16	=16	=16
16E	8B-]	4.g
16D	.	.
16E	16B-	.
16F	16G	.
16E	2c	.
16D	.	.
16E	.	16g
16C	.	16e
8F	.	8a
8FF	.	16cc
.	.	16a
8r	8r	[4ff
16F	16a	.
16D	16f	.
=17	=17	=17
16G	4b-	8ff]
16F	.	.
16G	.	16dd
16A	.	16b-
16G	8r	[4ee-
16B-	.	.
16A	16cc	.
16c	16a	.
[2B-	16f	8ee-]
.	16e-	.
.	16f	16dd
.	16d	16b-
.	8g	8ee-
.	8f	8dd
=18	=18	=18
2B-_	8e-	8cc
.	16d	16b-
.	16c	16a
.	16f	16dd
.	16g	16ee-
.	16e-	16cc
.	16f	16dd
16B-]	[2d	8b-
16c	.	.
16B-	.	16ff
16A	.	16dd
16G	.	8gg
16A	.	.
16B-	.	8ff
16G	.	.
=19	=19	=19
8c	4d]	8ee-
8B-	.	16dd
.	.	16cc
8A	4c	16ff
.	.	16gg
16G	.	16ee-
16F	.	16ff
16B-	8B-	4dd
16c	.	.
16A	16f	.
16c	16d	.
16B-	[4g	8r
16A	.	.
16B-	.	16dd
16G	.	16b-
=20	=20	=20
8c	8g]	4ee
8C	16g	.
.	16e	.
16c	4a	8r
16B-	.	.
16c	.	16ee
16A	.	16cc
8d	8r	4ff
8D	16a	.
.	16f	.
16d	[4b-	8r
16c	.	.
16d	.	16ff
16B-	.	16dd
=21	=21	=21
8e	16b-]	[4gg
.	16a	.
16c	16b-	.
16A	16cc	.
8d	8.a	16gg]
.	.	16ee
8c	.	[8ff
.	16a	.
8B-	16dd	4ff_
.	16b-	.
16A	16cc	.
16G	16dd	.
16c	[4g	16ff]
16d	.	16dd
16B-	.	16ee
16c	.	16gg
=22	=22	=22
8A	8g]	16cc
.	.	16b-
16d	16f	16cc
16c	16e	16a
16B-	2f	8dd
16c	.	.
16A	.	8cc
16B-	.	.
8G	.	8b-
16A	.	16a
16B-	.	16g
8c	8e	16cc
.	.	16dd
8E	[8g	16b-
.	.	16cc
=23	=23	=23
8F	8g]	8.a
16D	[8f	.
16BB-	.	16b-
8C	8f]	8.g
8CC	8e	.
.	.	16f
2FF;	2f;	2f;
====	====	====
*-	*-	*-
